X: 061990
T: Fermanagh's Loveliest HP 
C: BB
L: 1/8
Q: 1/8=320
M: 4/4
R: hornpipe
K: D
E2|"D"DFAd "G"BGBd | "A"Acea "Bm"fdBd | "G"gfeg "Bm"fedf | "Em"efed "A7"cAGE |
"D"DFAd "G"BGBd | "A"Acea "Bm"fdBd  | "G"gfed "A"cdeg | "D"df "A"ec "D"d2 :|
Bc| "Bm"dBAB fBAB | "A7"agfe cdec | "Bm"dBAB fBAB | "D"FAdc "G"B2 Bc |
"Bm"dBAB fBAB | "A7"agfe "D"dcBA | "G"BGBd "A"cAce |"D"df "A"ec "D"d2 :|
